X: 3
T: (Miss) Mary MacDonald
O: 1788
B: Niel Gow's 2nd Coll. 1788
R: reel
Z: 2014 John Chambers <jc:trillian.mit.edu>
S: printed copy of unknown origin
M: 6/8
L: 1/8
K: Gdor
A |\
"Gm"G2BG "F"ADFA | "Gm"G2BG AGBG |\
"Gm"DGBG "F"ADFA | "Dm"GcBA "G"G2G :|
|: D |\
"Gm"G2g2 "F"ADFA | "Gm"G2g2 gagd |\
"F"efec ADFA | "Dm"GcBA "Gm"G2G :|

%%sep 1 1 500

